X:841
T:South of The Gramplans 
C:Joe Buchanan's Scottish Tome - Page 407.0
I:407 0
R:Strathspey
Z:Carl Allison
M:4/4
K:A
C | "D"(A,>B,)(C>D) (E<C) E2 | "A"(A>E)"D"(F>E) "A"(A>E)(A<c) | "A"(A,>B,)(C>D) (E<C)(E>c) | "E"(3dcB "A"(3cBA "E7"(3GFE (3DCB, |
"D"(A,>B,)(C>D) (E<C) E2 | "A"(A>E)"D"(F>E) "A"(A>E)(A<c) | "D"(d>c)(d>f) "A"(e>c)(A>c) | (3dcB (3cBA GBBc |]
"A"(Ae)(ce) c<e c2 | (Ae)(ce) (3Ace (3"D"fga | "A"(Ae)(ce) (A>e)(a>g) | "D"(3fed "A"(3cBA "E7"G<BB>c |
"A"(Ae)(ce) c<e c2 | "A"(Ae)(ce) (3Ace (3fga | "A"(3agf (3edc (3"D"fed (3cBA | "E"(3dcB "A"(3cBA "E"(3GFE DCB, |]

